src/static/img/ylitse-logo.svg

<svg fill="none" height="816" viewBox="0 0 485 816" width="485" xmlns="http://www.w3.org/2000/svg"><path d="m195.065 786.476c5.133 0 9.316-3.885 12.167-11.461 3.803-7.575 6.655-17.87 8.936-30.689 4.373-24.28 7.035-55.359 7.795-93.43v-68.372c-25.286 53.804-38.595 99.451-40.115 136.551-2.092 45.84 1.52 68.178 11.217 67.401zm-124.72-690.7159c-1.521 28.1649-1.9013 56.5239-1.1408 85.2709 0 53.028 3.4222 101.587 10.0765 145.68 6.6542 44.092 16.3504 67.595 28.8983 70.509 23.005 6.021 47.911-15.928 74.718-66.042 26.047-50.89 39.735-141.6 41.256-271.935 5.894-12.0428 22.625-13.2082 50.192-3.4963 28.138 10.6832 40.686 27.7763 48.862 51.2793-3.042 66.041-3.233 72.451-2.472 114.213.76 42.538.76 50.114 1.521 107.803v29.524c19.392-26.611 37.834-53.027 55.706-79.638 16.35-24.28 30.419-47.006 42.397-68.372 11.977-21.367 20.343-39.82 25.666-55.747 7.415-2.331 13.689-3.496 19.012-3.496 5.324 0 11.788 1.553 19.963 4.467-8.175 31.855-28.518 72.451-61.219 121.788-33.462 49.337-66.162 96.731-98.103 142.183-.76 1.554-1.521 2.72-2.281 3.497v3.496c.76 33.409.38 66.43-1.141 99.062-1.521 26.611-3.422 52.639-5.514 78.473-2.281 25.057-5.133 48.948-8.935 71.674-8.175 40.985-19.773 74.394-34.602 100.228-14.83 26.611-35.743 39.819-62.36 39.819h-2.282c-49.812 0-73.577-27.776-71.295-83.135 2.281-56.135 26.807-126.644 73.577-211.721 3.042-6.021 6.274-12.431 10.076-19.423-.76-31.856-1.521-62.546-2.281-92.264-1.521-37.877-2.282-58.272-2.282-80.221-2.281 10.683-8.935 25.834-19.962 45.452-11.788 20.395-26.427 34.769-43.538 47.006-7.415 4.467-15.21 8.352-23.385 11.46-7.415 2.331-15.59 2.331-24.526 0-16.3504-3.108-30.4194-10.683-42.397-22.726-11.7876-11.46-21.864-25.834-30.0392-43.315-8.1753-18.259-14.4493-46.424-19.0122-69.15-4.56291-22.726-7.79498-46.229-10.07644-70.509-2.28145-25.833-3.42216-50.89-3.42216-75.17 0-18.259.76048-36.129 2.28145-53.4161 3.04195-40.9845 5.13328-69.732 6.65426-86.4366 7.41469-8.35227 16.73069-12.4313 27.75769-12.4313 3.042 0 5.8938.38848 8.9358 1.16544 15.5899 2.33087 26.4269 8.35229 32.3206 18.25846-3.6123 22.7261-6.274 48.1714-7.6048 76.3362z" fill="#fff"/></svg>

<svg width="485" height="816" viewBox="0 0 485 816" fill="none" xmlns="http://www.w3.org/2000/svg">
<path d="M195.065 786.476C200.198 786.476 204.381 782.591 207.232 775.015C211.035 767.44 213.887 757.145 216.168 744.326C220.541 720.046 223.203 688.967 223.963 650.896V582.524C198.677 636.328 185.368 681.975 183.848 719.075C181.756 764.915 185.368 787.253 195.065 786.476ZM70.345 95.7601C68.824 123.925 68.4437 152.284 69.2042 181.031C69.2042 234.059 72.6264 282.618 79.2807 326.711C85.9349 370.803 95.6311 394.306 108.179 397.22C131.184 403.241 156.09 381.292 182.897 331.178C208.944 280.288 222.632 189.578 224.153 59.243C230.047 47.2002 246.778 46.0348 274.345 55.7467C302.483 66.4299 315.031 83.523 323.207 107.026C320.165 173.067 319.974 179.477 320.735 221.239C321.495 263.777 321.495 271.353 322.256 329.042V358.566C341.648 331.955 360.09 305.539 377.962 278.928C394.312 254.648 408.381 231.922 420.359 210.556C432.336 189.189 440.702 170.736 446.025 154.809C453.44 152.478 459.714 151.313 465.037 151.313C470.361 151.313 476.825 152.866 485 155.78C476.825 187.635 456.482 228.231 423.781 277.568C390.319 326.905 357.619 374.299 325.678 419.751C324.918 421.305 324.157 422.471 323.397 423.248V426.744C324.157 460.153 323.777 493.174 322.256 525.806C320.735 552.417 318.834 578.445 316.742 604.279C314.461 629.336 311.609 653.227 307.807 675.953C299.632 716.938 288.034 750.347 273.205 776.181C258.375 802.792 237.462 816 210.845 816H208.563C158.751 816 134.986 788.224 137.268 732.865C139.549 676.73 164.075 606.221 210.845 521.144C213.887 515.123 217.119 508.713 220.921 501.721C220.161 469.865 219.4 439.175 218.64 409.457C217.119 371.58 216.358 351.185 216.358 329.236C214.077 339.919 207.423 355.07 196.396 374.688C184.608 395.083 169.969 409.457 152.858 421.694C145.443 426.161 137.648 430.046 129.473 433.154C122.058 435.485 113.883 435.485 104.947 433.154C88.5966 430.046 74.5276 422.471 62.55 410.428C50.7624 398.968 40.686 384.594 32.5108 367.113C24.3355 348.854 18.0615 320.689 13.4986 297.963C8.93569 275.237 5.70362 251.734 3.42216 227.454C1.14071 201.621 0 176.564 0 152.284C0 134.025 0.76048 116.155 2.28145 98.8679C5.3234 57.8834 7.41473 29.1359 8.93571 12.4313C16.3504 4.07903 25.6664 0 36.6934 0C39.7354 0 42.5872 0.38848 45.6292 1.16544C61.2191 3.49631 72.0561 9.51773 77.9498 19.4239C74.3375 42.15 71.6758 67.5953 70.345 95.7601Z" fill="#fff"/>
</svg>
